X: 42953
T: Willie Bucach Macleod Of Stornoway
R: reel
M: 4/4
K: Amajor
|:A2 e2 eAcB|AAea f2 fe|A2 e2 eAcB|AcBc ac e2:|
|:f2ef a2 cc|c2ec ef f2|f2 ef a2 AA|AcBc ac e2:|

